Img/Icones-redes/github.svg

<svg width="12" height="13" viewBox="0 0 12 13" fill="none" xmlns="http://www.w3.org/2000/svg">
<g clip-path="url(#clip0_4_181)">
<path d="M6 0.75C2.685 0.75 0 3.39 0 6.646C0 9.2515 1.719 11.461 4.1025 12.24C4.4025 12.2955 4.5125 12.113 4.5125 11.9565C4.5125 11.8165 4.5075 11.4455 4.505 10.954C2.836 11.3095 2.484 10.163 2.484 10.163C2.211 9.4825 1.8165 9.3005 1.8165 9.3005C1.273 8.935 1.8585 8.9425 1.8585 8.9425C2.461 8.9835 2.7775 9.55 2.7775 9.55C3.3125 10.4515 4.182 10.191 4.525 10.0405C4.579 9.659 4.7335 9.3995 4.905 9.252C3.5725 9.1045 2.172 8.5975 2.172 6.3385C2.172 5.695 2.4045 5.169 2.7895 4.7565C2.722 4.6075 2.5195 4.008 2.842 3.196C2.842 3.196 3.3445 3.038 4.492 3.8005C4.972 3.6695 5.482 3.6045 5.992 3.6015C6.502 3.6045 7.012 3.6695 7.492 3.8005C8.632 3.038 9.1345 3.196 9.1345 3.196C9.457 4.008 9.2545 4.6075 9.1945 4.7565C9.577 5.169 9.8095 5.695 9.8095 6.3385C9.8095 8.6035 8.407 9.102 7.072 9.247C7.282 9.424 7.477 9.7855 7.477 10.338C7.477 11.127 7.4695 11.761 7.4695 11.9525C7.4695 12.107 7.5745 12.2915 7.882 12.2325C10.2825 11.4585 12 9.2475 12 6.646C12 3.39 9.3135 0.75 6 0.75Z" fill="#D4D4D4"/>
</g>
<defs>
<clipPath id="clip0_4_181">
<rect width="12" height="12" fill="white" transform="translate(0 0.5)"/>
</clipPath>
</defs>
</svg>

<svg width="20" height="20" fill="none" xmlns="http://www.w3.org/2000/svg"><g clip-path="url(#a)"><path d="M6 .75c-3.315 0-6 2.64-6 5.896 0 2.606 1.719 4.815 4.103 5.594.3.056.41-.127.41-.284 0-.14-.005-.51-.008-1.002-1.669.355-2.021-.791-2.021-.791-.273-.68-.667-.863-.667-.863-.544-.365.042-.357.042-.357.602.04.918.607.918.607.535.901 1.405.641 1.748.49.054-.381.208-.64.38-.788-1.333-.148-2.733-.655-2.733-2.914 0-.643.232-1.169.617-1.582-.067-.149-.27-.748.053-1.56 0 0 .502-.158 1.65.604.48-.13.99-.196 1.5-.198.51.002 1.02.068 1.5.199 1.14-.763 1.642-.605 1.642-.605.323.812.12 1.411.06 1.56.383.413.615.939.615 1.582 0 2.266-1.402 2.764-2.737 2.909.21.177.405.539.405 1.091 0 .789-.008 1.423-.008 1.615 0 .154.105.338.413.28C10.282 11.459 12 9.246 12 6.646 12 3.39 9.313.75 6 .75Z" fill="#D4D4D4"/></g><defs><clipPath id="a"><path fill="#fff" transform="translate(0 .5)" d="M0 0h12v12H0z"/></clipPath></defs></svg>
